public/static/img/assets/withdraw.svg

<svg xmlns="http://www.w3.org/2000/svg" width="24" height="24" viewBox="0 0 24 24" fill="none">
  <path d="M2.00488 9H21.0049C21.5572 9 22.0049 9.44771 22.0049 10V20C22.0049 20.5523 21.5572 21 21.0049 21H3.00488C2.4526 21 2.00488 20.5523 2.00488 20V9ZM3.00488 3H18.0049V7H2.00488V4C2.00488 3.44771 2.4526 3 3.00488 3Z" fill="#00A609"/>
  <path d="M12.9999 19.1007L8.50002 19.1008L8.5 18.1008L11.9999 18.1007L12 14.3077H9.29291L12.5 11.1006L15.7071 14.3077L13 14.3077L12.9999 19.1007Z" fill="white"/>
</svg>

<svg xmlns="http://www.w3.org/2000/svg" width="24" height="24" fill="none"><path d="M2.005 9h19a1 1 0 0 1 1 1v10a1 1 0 0 1-1 1h-18a1 1 0 0 1-1-1V9Zm1-6h15v4h-16V4a1 1 0 0 1 1-1Z" fill="#00A609"/><path d="M13 19.1H8.5v-1H12v-3.792H9.293L12.5 11.1l3.207 3.207H13V19.1Z" fill="#fff"/></svg>
